file/chanel.svg

<svg clip-rule="evenodd" fill-rule="evenodd" stroke-linejoin="round" stroke-miterlimit="1.41421" viewBox="0 0 560 400" xmlns="http://www.w3.org/2000/svg"><g fill="#161413"><path d="m109.886 55.196c-.003.005-.008.016-.011.024-.291.55-.863.925-1.515.925-.947 0-1.723-.793-1.723-1.771 0-.974.776-1.772 1.723-1.772.655 0 1.229.383 1.518.941.008.011.011.016.019.032.002.003-.55.402-.556.394-.003-.011-.005-.019-.011-.024-.159-.397-.536-.661-.97-.653-.58.006-1.057.486-1.057 1.082 0 .601.477 1.086 1.057 1.086.42 0 .787-.259.954-.625.008-.014.011-.025.016-.035zm17.419.197h1.872v.685h-2.546v-3.444h.674zm-1.86-2.063h-1.737v.688h1.605v.687h-1.605v.688h1.982v.685h-2.653v-3.444h2.408zm-14.181 2.748h-.664v-3.444h.664v1.238h1.742v-1.238h.668v3.444h-.668v-1.513h-1.742zm8.154 0h-.674v-3.444h.936l1.475 2.071v-2.071h.668v3.444h-.534l-1.871-2.597zm-1.211 0h-.798l-.31-.685h-1.782l-.308.685h-.798l1.526-3.444h.933zm-2.001-2.748-.587 1.375h1.202z" transform="matrix(13.8592518044 0 0 13.8592518044 -1354.09623954 -478.13057172)"/><path d="m37.966 14.354c-1.082.626-2.377.998-3.756.998-2.822 0-5.294-1.538-6.631-3.82 0-.01-.01-.01-.01-.021s-.011-.011-.011-.021l1.082-.562 1.082-.552c.011.011.022.021.032.043.923 1.495 2.579 2.493 4.456 2.493.605 0 1.189-.106 1.708-.276-1.156-1.326-1.856-3.066-1.856-4.966 0-1.888.69-3.628 1.835-4.965-.52-.18-1.093-.275-1.687-.275-1.856 0-3.575.997-4.519 2.599-.011.01-.011.022-.011.032l-2.175-1.125c.011-.021.021-.042.032-.053 1.326-2.323 3.83-3.883 6.673-3.883 1.379 0 2.674.371 3.756 1.008 1.082-.637 2.377-1.008 3.755-1.008 2.844 0 5.348 1.56 6.674 3.883.01.011.021.032.032.053l-2.175 1.125c0-.01 0-.022-.011-.032-.944-1.602-2.663-2.599-4.52-2.599-.593 0-1.166.095-1.686.275 1.145 1.337 1.835 3.077 1.835 4.965 0 1.9-.7 3.64-1.857 4.966.52.17 1.104.276 1.708.276 1.878 0 3.534-.998 4.457-2.493.01-.022.021-.032.031-.043l1.082.552 1.083.562c0 .01-.011.01-.011.021s-.011.011-.011.021c-1.336 2.282-3.808 3.82-6.631 3.82-1.378 0-2.673-.372-3.755-.998zm0-3.044c-.891-.944-1.464-2.228-1.464-3.64 0-1.389.541-2.652 1.464-3.596.923.944 1.464 2.207 1.464 3.596 0 1.412-.573 2.696-1.464 3.64z" transform="matrix(9.2628160588 0 0 9.2628160588 -71.67048624 100.00006132)"/></g></svg>

<?xml version="1.0" encoding="UTF-8" standalone="no"?>
<!DOCTYPE svg PUBLIC "-//W3C//DTD SVG 1.1//EN" "http://www.w3.org/Graphics/SVG/1.1/DTD/svg11.dtd">
<svg width="100%" height="100%" viewBox="0 0 560 400" version="1.1" xmlns="http://www.w3.org/2000/svg" xmlns:xlink="http://www.w3.org/1999/xlink" xml:space="preserve" xmlns:serif="http://www.serif.com/" style="fill-rule:evenodd;clip-rule:evenodd;stroke-linejoin:round;stroke-miterlimit:1.41421;">
    <g transform="matrix(34.3202,0,0,34.3202,-2456.54,-1058.19)">
        <g transform="matrix(0.403822,0,0,0.403822,32.1223,16.9014)">
            <g id="g2438">
                <path id="path6" d="M109.886,55.196C109.883,55.201 109.878,55.212 109.875,55.22C109.584,55.77 109.012,56.145 108.36,56.145C107.413,56.145 106.637,55.352 106.637,54.374C106.637,53.4 107.413,52.602 108.36,52.602C109.015,52.602 109.589,52.985 109.878,53.543C109.886,53.554 109.889,53.559 109.897,53.575C109.899,53.578 109.347,53.977 109.341,53.969C109.338,53.958 109.336,53.95 109.33,53.945C109.171,53.548 108.794,53.284 108.36,53.292C107.78,53.298 107.303,53.778 107.303,54.374C107.303,54.975 107.78,55.46 108.36,55.46C108.78,55.46 109.147,55.201 109.314,54.835C109.322,54.821 109.325,54.81 109.33,54.8L109.886,55.196ZM127.305,55.393L129.177,55.393L129.177,56.078L126.631,56.078L126.631,52.634L127.305,52.634L127.305,55.393ZM125.445,53.33L123.708,53.33L123.708,54.018L125.313,54.018L125.313,54.705L123.708,54.705L123.708,55.393L125.69,55.393L125.69,56.078L123.037,56.078L123.037,52.634L125.445,52.634L125.445,53.33ZM111.264,56.078L110.6,56.078L110.6,52.634L111.264,52.634L111.264,53.872L113.006,53.872L113.006,52.634L113.674,52.634L113.674,56.078L113.006,56.078L113.006,54.565L111.264,54.565L111.264,56.078ZM119.418,56.078L118.744,56.078L118.744,52.634L119.68,52.634L121.155,54.705L121.155,52.634L121.823,52.634L121.823,56.078L121.289,56.078L119.418,53.481L119.418,56.078ZM118.207,56.078L117.409,56.078L117.099,55.393L115.317,55.393L115.009,56.078L114.211,56.078L115.737,52.634L116.67,52.634L118.207,56.078ZM116.206,53.33L115.619,54.705L116.821,54.705L116.206,53.33Z" style="fill:rgb(22,20,19);"/>
            </g>
        </g>
        <g transform="matrix(0.269894,0,0,0.269894,69.4888,33.7466)">
            <path id="path30" d="M37.966,14.354C36.884,14.98 35.589,15.352 34.21,15.352C31.388,15.352 28.916,13.814 27.579,11.532C27.579,11.522 27.569,11.522 27.569,11.511C27.569,11.5 27.558,11.5 27.558,11.49L28.64,10.928L29.722,10.376C29.733,10.387 29.744,10.397 29.754,10.419C30.677,11.914 32.333,12.912 34.21,12.912C34.815,12.912 35.399,12.806 35.918,12.636C34.762,11.31 34.062,9.57 34.062,7.67C34.062,5.782 34.752,4.042 35.897,2.705C35.377,2.525 34.804,2.43 34.21,2.43C32.354,2.43 30.635,3.427 29.691,5.029C29.68,5.039 29.68,5.051 29.68,5.061L27.505,3.936C27.516,3.915 27.526,3.894 27.537,3.883C28.863,1.56 31.367,0 34.21,0C35.589,0 36.884,0.371 37.966,1.008C39.048,0.371 40.343,0 41.721,0C44.565,0 47.069,1.56 48.395,3.883C48.405,3.894 48.416,3.915 48.427,3.936L46.252,5.061C46.252,5.051 46.252,5.039 46.241,5.029C45.297,3.427 43.578,2.43 41.721,2.43C41.128,2.43 40.555,2.525 40.035,2.705C41.18,4.042 41.87,5.782 41.87,7.67C41.87,9.57 41.17,11.31 40.013,12.636C40.533,12.806 41.117,12.912 41.721,12.912C43.599,12.912 45.255,11.914 46.178,10.419C46.188,10.397 46.199,10.387 46.209,10.376L47.291,10.928L48.374,11.49C48.374,11.5 48.363,11.5 48.363,11.511C48.363,11.522 48.352,11.522 48.352,11.532C47.016,13.814 44.544,15.352 41.721,15.352C40.343,15.352 39.048,14.98 37.966,14.354ZM37.966,11.31C37.075,10.366 36.502,9.082 36.502,7.67C36.502,6.281 37.043,5.018 37.966,4.074C38.889,5.018 39.43,6.281 39.43,7.67C39.43,9.082 38.857,10.366 37.966,11.31Z" style="fill:rgb(22,20,19);"/>
        </g>
    </g>
</svg>
